docs/static/staticshape-dark.svg

<svg fill="none" height="118" viewBox="0 0 747 118" width="747" xmlns="http://www.w3.org/2000/svg"><path d="m51.4809 105.816c-1.212 2.271-4.085 3.037-6.2749 1.683-1.5136-.936-2.3254-2.683-2.065-4.443l5.3001-35.8338h-19.2434c-3.3229 0-3.2656-1.9556-2.1771-4.0333 1.0885-2.0778.2865-.4889.401-.7334 7.0128-13.221 17.3786-32.6045 31.0483-58.25496 1.2109-2.27225 4.0919-3.05416 6.2817-1.6999 1.5138.93613 2.3256 2.68298 2.0652 4.44364l-5.3001 35.83352h19.2435c2.8072 0 3.2083 2.0166 2.6927 3.1166l-.4011.9167c-16.7662 31.2743-27.2742 50.9508-31.5709 59.0049z" fill="#ffc803"/><path d="m157 93.2c-16.2 0-25.2-10.8-25.2-10.8l9.6-10.2s6 6.6 15.6 6.6c5.4 0 7.2-1.8 7.2-4.2 0-6.6-30-5.4-30-24.6 0-9.6 8.4-18 23.4-18s22.8 9 22.8 9l-9.6 10.2s-4.8-4.8-13.2-4.8c-4.2 0-6 1.8-6 3.6 0 6.6 30 5.4 30 24.6 0 10.2-8.4 18.6-24.6 18.6zm57.609 0c-12 0-19.8-7.8-19.8-21.6v-22.2h-10.2v-15h5.4c4.2 0 6.6-2.4 6.6-7.2v-10.8h14.4v18h13.2v15h-13.2v19.8c0 5.4 3 8.4 7.8 8.4 3.6 0 6.6-1.2 6.6-1.2v15s-4.8 1.8-10.8 1.8zm34.875 0c-10.8 0-18-7.2-18-16.8s6.6-16.92 17.4-18.84l18.6-3.36c-.6-4.2-4.2-7.8-10.2-7.8-8.4 0-13.2 6.6-13.2 6.6l-9.6-9.6s8.4-11.4 24-11.4c15 0 25.2 10.2 25.2 23.4v36.6s-12.6 0-16.2 0v-7.2h-.6s-6 8.4-17.4 8.4zm5.4-13.2c7.2 0 12.6-5.4 12.6-13.2v-1.2l-13.2 2.4c-4.2.72-6.6 3-6.6 6 0 3.6 2.4 6 7.2 6zm65.433 13.2c-12 0-19.8-7.8-19.8-21.6v-22.2h-10.2v-15h5.4c4.2 0 6.6-2.4 6.6-7.2v-10.8h14.4v18h13.2v15h-13.2v19.8c0 5.4 3 8.4 7.8 8.4 3.6 0 6.6-1.2 6.6-1.2v15s-4.8 1.8-10.8 1.8zm21.047-1.2v-58.8h16.2v58.8zm8.04-66.6c-5.04 0-9.24-4.2-9.24-9s4.2-9.00001 9.36-9.00001c5.04 0 9.24 4.20001 9.24 9.00001s-4.2 9-9.36 9zm48.918 67.8c-17.4 0-31.2-13.8-31.2-30.6s13.8-30.6 31.2-30.6c16.8 0 24.6 12 24.6 12l-10.2 10.2s-5.4-7.2-14.4-7.2c-8.4 0-15 6.6-15 15.6s6.6 15.6 15 15.6c9 0 14.4-7.2 14.4-7.2l10.2 10.2s-7.8 12-24.6 12zm51.544 0c-16.2 0-25.2-10.8-25.2-10.8l9.6-10.2s6 6.6 15.6 6.6c5.4 0 7.2-1.8 7.2-4.2 0-6.6-30-5.4-30-24.6 0-9.6 8.4-18 23.4-18s22.8 9 22.8 9l-9.6 10.2s-4.8-4.8-13.2-4.8c-4.2 0-6 1.8-6 3.6 0 6.6 30 5.4 30 24.6 0 10.2-8.4 18.6-24.6 18.6zm33.609-1.2v-84.00001h16.2v33.60001h.6s6-9.6 17.4-9.6c12 0 21.6 9.6 21.6 24.6v35.4h-16.2v-33c0-7.2-4.2-11.4-10.8-11.4-7.2 0-12.6 5.4-12.6 13.2v31.2zm83.953 1.2c-10.8 0-18-7.2-18-16.8s6.6-16.92 17.4-18.84l18.6-3.36c-.6-4.2-4.2-7.8-10.2-7.8-8.4 0-13.2 6.6-13.2 6.6l-9.6-9.6s8.4-11.4 24-11.4c15 0 25.2 10.2 25.2 23.4v36.6s-12.6 0-16.2 0v-7.2h-.6s-6 8.4-17.4 8.4zm5.4-13.2c7.2 0 12.6-5.4 12.6-13.2v-1.2l-13.2 2.4c-4.2.72-6.6 3-6.6 6 0 3.6 2.4 6 7.2 6zm42.005 37.2v-84h16.2v8.4h.6s6-9.6 18.6-9.6c13.8 0 26.4 12.6 26.4 30.6s-12.6 30.6-26.4 30.6c-12.6 0-18.6-9.6-18.6-9.6h-.6v33.6zm30.6-39c8.4 0 15-6.6 15-15.6s-6.6-15.6-15-15.6-15 6.6-15 15.6 6.6 15.6 15 15.6zm68.428 15c-17.4 0-31.2-13.8-31.2-30.6s13.8-30.6 30.6-30.6c16.2 0 29.4 13.2 29.4 29.4 0 4.2-.6 7.2-.6 7.2h-42.6c1.8 5.4 6.6 10.2 15.6 10.2 10.2 0 15.6-6.6 15.6-6.6l8.4 11.4s-9 9.6-25.2 9.6zm-14.4-36.6h26.4c-1.8-5.4-6.6-10.2-13.2-10.2s-11.4 4.8-13.2 10.2z" fill="#fff"/></svg>

<svg width="747" height="118" viewBox="0 0 747 118" fill="none" xmlns="http://www.w3.org/2000/svg">
<path d="M51.4809 105.816C50.2689 108.087 47.3959 108.853 45.206 107.499V107.499C43.6924 106.563 42.8806 104.816 43.141 103.056L48.4411 67.2222H29.1977C25.8748 67.2222 25.9321 65.2666 27.0206 63.1889C28.1091 61.1111 27.3071 62.7 27.4216 62.4555C34.4344 49.2345 44.8002 29.851 58.4699 4.20054C59.6808 1.92829 62.5618 1.14638 64.7516 2.50064V2.50064C66.2654 3.43677 67.0772 5.18362 66.8168 6.94428L61.5167 42.7778H80.7602C83.5674 42.7778 83.9685 44.7944 83.4529 45.8944L83.0518 46.8111C66.2856 78.0854 55.7776 97.7619 51.4809 105.816Z" fill="#FFC803"/>
<path d="M157 93.2C140.8 93.2 131.8 82.4 131.8 82.4L141.4 72.2C141.4 72.2 147.4 78.8 157 78.8C162.4 78.8 164.2 77 164.2 74.6C164.2 68 134.2 69.2 134.2 50C134.2 40.4 142.6 32 157.6 32C172.6 32 180.4 41 180.4 41L170.8 51.2C170.8 51.2 166 46.4 157.6 46.4C153.4 46.4 151.6 48.2 151.6 50C151.6 56.6 181.6 55.4 181.6 74.6C181.6 84.8 173.2 93.2 157 93.2ZM214.609 93.2C202.609 93.2 194.809 85.4 194.809 71.6V49.4H184.609V34.4H190.009C194.209 34.4 196.609 32 196.609 27.2V16.4H211.009V34.4H224.209V49.4H211.009V69.2C211.009 74.6 214.009 77.6 218.809 77.6C222.409 77.6 225.409 76.4 225.409 76.4V91.4C225.409 91.4 220.609 93.2 214.609 93.2ZM249.484 93.2C238.684 93.2 231.484 86 231.484 76.4C231.484 66.8 238.084 59.48 248.884 57.56L267.484 54.2C266.884 50 263.284 46.4 257.284 46.4C248.884 46.4 244.084 53 244.084 53L234.484 43.4C234.484 43.4 242.884 32 258.484 32C273.484 32 283.684 42.2 283.684 55.4V92C283.684 92 271.084 92 267.484 92V84.8H266.884C266.884 84.8 260.884 93.2 249.484 93.2ZM254.884 80C262.084 80 267.484 74.6 267.484 66.8V65.6L254.284 68C250.084 68.72 247.684 71 247.684 74C247.684 77.6 250.084 80 254.884 80ZM320.317 93.2C308.317 93.2 300.517 85.4 300.517 71.6V49.4H290.317V34.4H295.717C299.917 34.4 302.317 32 302.317 27.2V16.4H316.717V34.4H329.917V49.4H316.717V69.2C316.717 74.6 319.717 77.6 324.517 77.6C328.117 77.6 331.117 76.4 331.117 76.4V91.4C331.117 91.4 326.317 93.2 320.317 93.2ZM341.364 92V33.2H357.564V92H341.364ZM349.404 25.4C344.364 25.4 340.164 21.2 340.164 16.4C340.164 11.6 344.364 7.39999 349.524 7.39999C354.564 7.39999 358.764 11.6 358.764 16.4C358.764 21.2 354.564 25.4 349.404 25.4ZM398.322 93.2C380.922 93.2 367.122 79.4 367.122 62.6C367.122 45.8 380.922 32 398.322 32C415.122 32 422.922 44 422.922 44L412.722 54.2C412.722 54.2 407.322 47 398.322 47C389.922 47 383.322 53.6 383.322 62.6C383.322 71.6 389.922 78.2 398.322 78.2C407.322 78.2 412.722 71 412.722 71L422.922 81.2C422.922 81.2 415.122 93.2 398.322 93.2ZM449.866 93.2C433.666 93.2 424.666 82.4 424.666 82.4L434.266 72.2C434.266 72.2 440.266 78.8 449.866 78.8C455.266 78.8 457.066 77 457.066 74.6C457.066 68 427.066 69.2 427.066 50C427.066 40.4 435.466 32 450.466 32C465.466 32 473.266 41 473.266 41L463.666 51.2C463.666 51.2 458.866 46.4 450.466 46.4C446.266 46.4 444.466 48.2 444.466 50C444.466 56.6 474.466 55.4 474.466 74.6C474.466 84.8 466.066 93.2 449.866 93.2ZM483.475 92V7.99999H499.675V41.6H500.275C500.275 41.6 506.275 32 517.675 32C529.675 32 539.275 41.6 539.275 56.6V92H523.075V59C523.075 51.8 518.875 47.6 512.275 47.6C505.075 47.6 499.675 53 499.675 60.8V92H483.475ZM567.428 93.2C556.628 93.2 549.428 86 549.428 76.4C549.428 66.8 556.028 59.48 566.828 57.56L585.428 54.2C584.828 50 581.228 46.4 575.228 46.4C566.828 46.4 562.028 53 562.028 53L552.428 43.4C552.428 43.4 560.828 32 576.428 32C591.428 32 601.628 42.2 601.628 55.4V92C601.628 92 589.028 92 585.428 92V84.8H584.828C584.828 84.8 578.828 93.2 567.428 93.2ZM572.828 80C580.028 80 585.428 74.6 585.428 66.8V65.6L572.228 68C568.028 68.72 565.628 71 565.628 74C565.628 77.6 568.028 80 572.828 80ZM614.833 117.2V33.2H631.033V41.6H631.633C631.633 41.6 637.633 32 650.233 32C664.033 32 676.633 44.6 676.633 62.6C676.633 80.6 664.033 93.2 650.233 93.2C637.633 93.2 631.633 83.6 631.633 83.6H631.033V117.2H614.833ZM645.433 78.2C653.833 78.2 660.433 71.6 660.433 62.6C660.433 53.6 653.833 47 645.433 47C637.033 47 630.433 53.6 630.433 62.6C630.433 71.6 637.033 78.2 645.433 78.2ZM713.861 93.2C696.461 93.2 682.661 79.4 682.661 62.6C682.661 45.8 696.461 32 713.261 32C729.461 32 742.661 45.2 742.661 61.4C742.661 65.6 742.061 68.6 742.061 68.6H699.461C701.261 74 706.061 78.8 715.061 78.8C725.261 78.8 730.661 72.2 730.661 72.2L739.061 83.6C739.061 83.6 730.061 93.2 713.861 93.2ZM699.461 56.6H725.861C724.061 51.2 719.261 46.4 712.661 46.4C706.061 46.4 701.261 51.2 699.461 56.6Z" fill="white"/>
</svg>
